<?xml version="1.0" encoding="UTF-8"?>
<map version="1.10" tiledversion="1.12.1" orientation="orthogonal" renderorder="right-down" width="30" height="20" tilewidth="16" tileheight="16" infinite="1" nextlayerid="6" nextobjectid="1">
 <tileset firstgid="1" source="Pixel 16 v2 village free.tsx"/>
 <tileset firstgid="290" source="Maple Tree.tsx"/>
 <tileset firstgid="320" source="Tileset Spring.tsx"/>
 <tileset firstgid="560" source="free_pixel_16_woods.tsx"/>
 <tileset firstgid="824" source="Fence's copiar.tsx"/>
 <tileset firstgid="839" source="$water.tsx"/>
 <tileset firstgid="851" source="Wood Bridge.tsx"/>
 <tileset firstgid="866" source="Premium Pack.tsx"/>
 <tileset firstgid="132046" source="GRASS+.tsx"/>
 <layer id="1" name="Tile Layer 1" width="30" height="20">
  <data encoding="csv">
   <chunk x="-32" y="-16" width="16" height="16">
0,0,0,0,0,0,0,0,0,0,0,0,0,0,0,0,
0,0,0,0,0,0,0,0,0,0,0,0,0,0,0,0,
0,0,0,0,0,0,0,0,0,0,0,0,0,0,0,0,
0,0,0,0,0,0,0,0,0,0,0,0,0,0,0,0,
0,0,0,0,0,0,0,0,0,0,0,0,0,0,0,0,
0,0,0,0,0,0,0,0,0,0,0,0,0,0,0,0,
749,705,745,545,545,545,545,545,545,545,545,545,545,545,545,545,
749,705,745,545,545,545,545,545,545,545,545,545,545,545,545,545,
749,705,745,353,353,353,353,353,353,353,353,353,353,353,353,353,
749,705,745,353,353,353,353,353,353,353,353,353,353,353,353,353,
749,705,745,545,545,545,545,545,545,545,545,545,545,545,545,545,
749,705,745,545,545,545,545,545,545,545,545,545,545,545,545,545,
749,705,745,474,474,474,474,474,474,474,474,474,474,474,474,474,
749,705,745,509,509,509,509,509,509,509,509,509,509,509,509,509,
749,705,745,545,545,545,545,545,545,545,545,545,545,545,545,545,
749,705,745,545,545,545,545,545,545,545,545,545,545,545,545,545
</chunk>
   <chunk x="-16" y="-16" width="16" height="16">
0,0,0,0,0,0,0,0,0,0,0,0,0,0,0,0,
0,0,0,0,0,0,0,0,0,0,0,0,0,0,0,0,
0,0,0,0,0,0,0,0,0,0,0,0,0,0,0,0,
0,0,0,0,0,0,0,0,0,0,0,0,0,0,0,0,
0,0,0,0,0,0,0,0,0,0,0,0,0,0,0,0,
0,0,0,0,0,0,0,0,0,0,0,0,0,0,0,0,
545,545,545,545,545,545,545,545,545,545,545,545,545,545,545,545,
545,545,545,545,545,545,545,545,545,545,545,545,545,545,545,545,
353,353,353,353,353,353,353,353,353,353,353,353,353,353,353,353,
353,353,353,353,353,353,353,353,353,353,353,353,353,353,353,353,
545,545,545,545,545,545,545,545,545,545,545,545,545,545,545,545,
545,545,545,545,545,545,545,545,545,545,545,545,545,545,545,472,
474,474,474,474,474,474,474,474,474,474,474,474,474,474,426,497,
509,509,509,509,509,509,509,497,497,509,509,509,509,509,509,497,
545,545,545,545,545,545,545,484,499,545,545,545,545,545,545,484,
545,545,545,545,545,545,545,484,499,545,545,545,545,545,545,508
</chunk>
   <chunk x="0" y="-16" width="16" height="16">
0,0,0,0,0,0,0,0,0,0,0,0,0,0,0,0,
0,0,0,0,0,0,0,0,0,0,0,0,0,0,0,0,
0,0,0,0,0,0,0,0,0,0,0,0,0,0,0,0,
0,0,0,0,0,0,0,0,0,0,0,0,0,0,0,0,
0,0,0,0,0,0,0,0,0,0,0,0,0,0,0,0,
0,0,0,0,0,0,0,0,0,0,0,0,0,0,0,0,
545,545,545,545,545,545,545,0,0,0,0,0,0,0,0,0,
545,545,545,545,545,0,545,0,0,0,0,0,0,0,0,0,
353,353,353,353,353,353,545,0,0,0,0,0,0,0,0,0,
353,353,353,353,353,353,545,0,0,0,0,0,0,0,0,0,
545,545,545,545,353,353,545,0,0,0,0,0,0,0,0,0,
474,474,475,545,353,353,545,0,0,0,0,0,0,0,0,0,
497,497,499,545,353,353,545,0,0,0,0,0,0,0,0,0,
497,497,499,545,353,353,545,0,0,0,0,0,0,0,0,0,
497,497,499,545,353,353,545,0,0,0,0,0,0,0,0,0,
509,509,511,545,353,353,545,0,0,0,0,0,0,0,0,0
</chunk>
   <chunk x="-32" y="0" width="16" height="16">
749,705,745,545,545,545,545,545,545,545,545,545,545,545,545,545,
749,705,745,545,545,545,545,545,545,545,545,545,545,545,545,545,
749,705,745,474,474,474,474,474,474,474,474,474,474,474,474,474,
749,705,745,509,509,509,509,497,497,509,509,509,509,509,509,509,
749,705,745,545,545,545,545,484,499,545,545,545,545,545,545,545,
749,705,745,545,545,545,545,484,499,545,545,545,545,545,545,545,
749,705,745,545,545,545,545,484,499,545,545,545,545,545,545,545,
749,705,745,545,545,545,545,484,499,545,545,545,545,545,545,545,
749,705,745,545,545,545,545,484,499,545,545,545,545,545,545,545,
749,705,745,545,545,545,545,484,499,545,545,545,545,545,545,545,
749,705,745,545,545,545,545,484,499,545,545,545,545,545,545,545,
749,705,745,545,545,545,545,484,499,545,545,545,545,545,545,545,
749,705,745,545,545,545,545,484,499,545,545,545,545,545,545,545,
749,705,767,791,791,791,791,791,791,791,791,791,791,791,791,791,
749,705,705,705,705,705,705,705,705,705,705,705,705,705,705,705,
726,703,703,703,703,703,703,703,703,703,703,703,703,703,703,703
</chunk>
   <chunk x="-16" y="0" width="16" height="16">
545,545,545,545,545,545,545,484,499,545,545,545,545,545,545,545,
545,545,545,545,545,545,545,484,499,545,545,545,545,545,545,545,
474,474,474,474,474,474,474,497,499,545,545,545,545,545,545,545,
509,509,509,509,509,509,509,497,499,545,545,545,545,545,472,474,
545,545,545,545,545,545,545,484,499,545,545,545,545,545,484,497,
545,424,426,426,426,427,545,484,499,545,545,545,545,545,484,497,
545,436,449,449,449,451,545,484,497,474,474,474,474,474,497,497,
545,436,449,449,449,451,545,484,497,509,509,509,509,509,497,497,
545,436,449,449,449,451,545,484,499,545,545,545,545,545,484,497,
545,436,449,449,449,451,545,484,499,545,545,545,545,545,484,497,
545,436,449,449,449,451,545,484,499,545,545,545,545,545,508,509,
545,460,461,461,461,463,545,484,499,545,545,545,545,545,545,545,
545,545,545,545,545,545,545,484,499,545,545,545,545,545,545,545,
791,791,791,791,791,791,791,791,791,791,791,791,791,791,791,791,
705,705,705,705,705,705,705,705,705,705,705,705,705,705,705,705,
703,703,703,703,703,703,703,703,703,703,703,703,703,703,703,703
</chunk>
   <chunk x="0" y="0" width="16" height="16">
545,545,545,545,353,353,545,0,0,0,0,0,0,0,0,0,
545,545,545,545,353,353,545,0,0,0,0,0,0,0,0,0,
545,545,545,545,353,353,545,0,0,0,0,0,0,0,0,0,
474,474,475,545,353,353,545,0,0,0,0,0,0,0,0,0,
497,497,499,545,353,353,545,0,0,0,0,0,0,0,0,0,
497,497,499,545,353,353,545,0,0,0,0,0,0,0,0,0,
497,497,499,545,353,353,545,0,0,0,0,0,0,0,0,0,
497,497,499,545,353,353,545,0,0,0,0,0,0,0,0,0,
497,497,499,545,353,353,545,0,0,0,0,0,0,0,0,0,
497,497,499,545,353,353,545,0,0,0,0,0,0,0,0,0,
509,509,511,545,353,353,545,0,0,0,0,0,0,0,0,0,
545,545,545,545,353,353,545,0,0,0,0,0,0,0,0,0,
545,545,545,545,353,353,783,0,0,0,0,0,0,0,0,0,
791,791,791,791,791,791,791,0,0,0,0,0,0,0,0,0,
705,705,705,705,705,705,705,0,0,0,0,0,0,0,0,0,
703,703,703,703,703,703,703,0,0,0,0,0,0,0,0,0
</chunk>
   <chunk x="-32" y="16" width="16" height="16">
55,55,55,55,55,55,55,57,53,55,55,55,55,55,55,55,
55,73,89,89,71,55,55,57,53,55,55,55,55,55,55,55,
55,57,26,24,53,55,55,57,53,55,55,55,55,55,55,55,
55,57,24,26,70,89,89,90,70,89,89,89,89,89,89,89,
55,57,24,24,36,21,21,21,21,21,21,21,21,21,21,21,
55,57,26,24,53,55,55,55,55,55,55,55,55,55,55,55,
55,39,21,21,37,55,55,55,55,55,55,55,55,55,55,55,
0,0,0,0,0,0,0,0,0,0,0,0,0,0,0,0,
0,0,0,0,0,0,0,0,0,0,0,0,0,0,0,0,
0,0,0,0,0,0,0,0,0,0,0,0,0,0,0,0,
0,0,0,0,0,0,0,0,0,0,0,0,0,0,0,0,
0,0,0,0,0,0,0,0,0,0,0,0,0,0,0,0,
0,0,0,0,0,0,0,0,0,0,0,0,0,0,0,0,
0,0,0,0,0,0,0,0,0,0,0,0,0,0,0,0,
0,0,0,0,0,0,0,0,0,0,0,0,0,0,0,0,
0,0,0,0,0,0,0,0,0,0,0,0,0,0,0,0
</chunk>
   <chunk x="-16" y="16" width="16" height="16">
55,55,55,55,55,55,55,57,53,55,55,55,55,424,427,424,
55,55,55,55,55,55,55,57,53,55,55,55,55,436,451,436,
55,55,55,55,55,55,55,57,53,55,55,55,55,436,451,436,
89,89,89,89,89,89,89,90,53,55,55,55,55,460,463,460,
21,21,21,21,21,21,21,21,37,55,55,55,55,55,55,55,
55,55,55,55,55,55,55,55,55,55,55,55,55,55,55,55,
55,55,55,55,55,55,55,55,55,55,55,55,55,55,55,55,
0,0,0,0,0,0,0,0,0,0,0,0,0,0,0,0,
0,0,0,0,0,0,0,0,0,0,0,0,0,0,0,0,
0,0,0,0,0,0,0,0,0,0,0,0,0,0,0,0,
0,0,0,0,0,0,0,0,0,0,0,0,0,0,0,0,
0,0,0,0,0,0,0,0,0,0,0,0,0,0,0,0,
0,0,0,0,0,0,0,0,0,0,0,0,0,0,0,0,
0,0,0,0,0,0,0,0,0,0,0,0,0,0,0,0,
0,0,0,0,0,0,0,0,0,0,0,0,0,0,0,0,
0,0,0,0,0,0,0,0,0,0,0,0,0,0,0,0
</chunk>
   <chunk x="0" y="16" width="16" height="16">
427,424,427,424,427,55,55,0,0,0,0,0,0,0,0,0,
451,436,451,436,451,55,55,0,0,0,0,0,0,0,0,0,
451,436,451,436,451,55,55,0,0,0,0,0,0,0,0,0,
463,460,463,460,463,55,55,0,0,0,0,0,0,0,0,0,
55,55,55,55,55,55,55,0,0,0,0,0,0,0,0,0,
55,55,55,55,55,55,55,0,0,0,0,0,0,0,0,0,
55,55,55,55,55,55,55,0,0,0,0,0,0,0,0,0,
0,0,0,0,0,0,0,0,0,0,0,0,0,0,0,0,
0,0,0,0,0,0,0,0,0,0,0,0,0,0,0,0,
0,0,0,0,0,0,0,0,0,0,0,0,0,0,0,0,
0,0,0,0,0,0,0,0,0,0,0,0,0,0,0,0,
0,0,0,0,0,0,0,0,0,0,0,0,0,0,0,0,
0,0,0,0,0,0,0,0,0,0,0,0,0,0,0,0,
0,0,0,0,0,0,0,0,0,0,0,0,0,0,0,0,
0,0,0,0,0,0,0,0,0,0,0,0,0,0,0,0,
0,0,0,0,0,0,0,0,0,0,0,0,0,0,0,0
</chunk>
  </data>
 </layer>
 <layer id="5" name="di bawah" width="30" height="20">
  <data encoding="csv">
   <chunk x="-32" y="-16" width="16" height="16">
0,0,0,0,0,0,0,0,0,0,0,0,0,0,0,0,
0,0,0,0,0,0,0,0,0,0,0,0,0,0,0,0,
0,0,0,0,0,0,0,0,0,0,0,0,0,0,0,0,
0,0,0,0,0,0,0,0,0,0,0,0,0,0,0,0,
0,0,0,0,0,0,0,0,0,0,0,0,0,0,0,0,
0,0,0,0,0,0,0,0,0,0,0,0,0,0,0,0,
0,0,0,0,0,0,0,0,0,0,0,0,0,0,0,0,
0,0,0,0,0,0,0,0,0,0,0,0,0,0,0,0,
0,0,0,0,0,0,0,0,0,0,0,0,0,0,0,0,
0,0,0,0,0,0,0,0,0,0,0,0,132383,0,0,0,
0,0,0,0,0,0,0,0,0,0,0,0,0,0,0,0,
0,0,0,0,0,132361,0,0,0,0,0,0,0,0,0,0,
0,0,0,0,0,0,0,0,0,0,0,0,0,0,0,0,
0,0,0,0,0,0,0,0,0,0,0,0,0,0,0,0,
0,0,0,0,0,0,0,0,0,0,0,0,0,0,0,0,
0,0,0,0,0,0,0,0,0,0,0,0,0,0,0,0
</chunk>
   <chunk x="-16" y="-16" width="16" height="16">
0,0,0,0,0,0,0,0,0,0,0,0,0,0,0,0,
0,0,0,0,0,0,0,0,0,0,0,0,0,0,0,0,
0,0,0,0,0,0,0,0,0,0,0,0,0,0,0,0,
0,0,0,0,0,0,0,0,0,0,0,0,0,0,0,0,
0,0,0,0,0,0,0,0,0,0,0,0,0,0,0,0,
0,0,0,0,0,0,0,0,0,0,0,0,0,0,0,0,
0,0,0,0,0,0,0,0,0,0,0,0,0,0,0,0,
0,0,0,0,0,0,0,0,0,0,0,0,0,0,0,0,
0,0,0,0,0,0,0,0,0,0,0,0,0,0,0,0,
0,0,0,0,0,0,0,0,0,0,0,0,0,0,0,0,
0,0,0,0,0,0,0,620,0,0,0,0,0,0,0,83,
0,0,0,0,0,0,0,0,0,0,0,0,0,0,0,0,
0,0,0,0,0,0,0,0,0,0,0,0,0,0,0,0,
0,0,0,0,0,0,0,0,0,0,0,0,0,0,0,0,
0,0,0,0,0,0,0,0,0,0,0,0,0,0,0,0,
0,0,0,0,0,0,0,0,0,0,0,0,0,0,0,0
</chunk>
   <chunk x="0" y="-16" width="16" height="16">
0,0,0,0,0,0,0,0,0,0,0,0,0,0,0,0,
0,0,0,0,0,0,0,0,0,0,0,0,0,0,0,0,
0,0,0,0,0,0,0,0,0,0,0,0,0,0,0,0,
0,0,0,0,0,0,0,0,0,0,0,0,0,0,0,0,
0,0,0,0,0,0,0,0,0,0,0,0,0,0,0,0,
0,0,0,0,0,0,0,0,0,0,0,0,0,0,0,0,
0,0,0,0,0,0,0,0,0,0,0,0,0,0,0,0,
0,0,0,0,0,0,0,0,0,0,0,0,0,0,0,0,
0,0,0,0,0,0,0,0,0,0,0,0,0,0,0,0,
0,132383,0,0,0,0,0,0,0,0,0,0,0,0,0,0,
0,0,0,0,0,0,0,0,0,0,0,0,0,0,0,0,
0,0,0,0,0,0,0,0,0,0,0,0,0,0,0,0,
0,0,0,0,0,0,0,0,0,0,0,0,0,0,0,0,
0,0,0,0,0,0,0,0,0,0,0,0,0,0,0,0,
0,0,0,0,0,0,0,0,0,0,0,0,0,0,0,0,
0,0,0,0,0,0,0,0,0,0,0,0,0,0,0,0
</chunk>
   <chunk x="-32" y="0" width="16" height="16">
0,0,0,0,0,0,0,0,0,0,0,0,0,0,0,0,
0,0,0,0,0,0,0,0,0,0,0,0,0,0,0,0,
0,0,0,0,0,0,0,0,0,0,0,0,0,0,0,0,
0,0,0,0,0,0,0,0,0,0,0,0,0,0,50,0,
0,0,0,132361,0,0,0,0,0,0,0,0,0,0,67,0,
0,0,0,0,0,0,0,0,0,0,0,0,0,0,0,0,
0,0,0,0,0,0,0,0,0,0,0,0,0,0,132383,0,
0,0,0,132383,0,0,0,0,0,0,0,0,0,0,0,0,
0,0,0,0,0,0,0,0,0,0,0,0,0,0,0,0,
0,0,0,0,0,0,0,0,0,132380,0,0,0,0,0,0,
0,0,0,0,132359,0,0,0,0,0,0,0,0,0,0,0,
0,0,0,0,0,0,0,0,0,0,0,0,0,0,0,0,
0,0,0,0,0,0,0,0,0,0,0,0,0,0,0,0,
0,0,0,0,0,0,0,0,0,0,0,0,0,0,0,0,
0,0,0,0,0,0,0,0,0,0,0,0,0,0,0,0,
0,0,0,0,0,0,0,0,0,0,0,0,0,0,0,0
</chunk>
   <chunk x="-16" y="0" width="16" height="16">
0,0,0,0,0,132382,0,0,0,0,0,0,0,0,0,0,
0,0,0,0,0,0,0,0,0,0,0,0,0,0,0,0,
0,0,0,0,0,0,0,0,0,0,0,0,0,0,0,0,
0,0,0,0,0,0,0,0,0,0,0,0,0,0,0,0,
0,0,0,0,0,0,0,0,0,0,0,0,0,0,0,0,
0,0,0,0,0,0,0,0,0,0,0,0,0,0,0,0,
0,0,0,0,0,0,0,0,0,0,0,0,0,0,0,0,
0,0,0,0,0,0,132385,0,0,0,0,0,0,0,0,0,
0,0,0,0,0,0,0,0,0,0,0,0,0,0,0,132391,
0,0,0,0,0,0,132383,0,0,0,0,0,0,0,0,0,
0,0,0,0,0,0,0,0,0,0,0,0,0,0,0,0,
0,0,0,0,0,0,0,0,0,0,0,0,132383,0,0,0,
0,0,0,132385,0,0,0,0,0,0,0,0,0,0,0,0,
0,0,0,0,0,0,0,0,0,0,0,0,0,0,0,0,
0,0,0,0,0,0,0,0,0,0,0,0,0,0,0,0,
0,0,0,0,0,0,0,0,0,0,0,0,0,0,0,0
</chunk>
   <chunk x="0" y="0" width="16" height="16">
0,0,0,0,0,0,0,0,0,0,0,0,0,0,0,0,
0,0,0,0,0,0,0,0,0,0,0,0,0,0,0,0,
0,0,0,0,0,0,0,0,0,0,0,0,0,0,0,0,
0,0,0,0,0,0,0,0,0,0,0,0,0,0,0,0,
0,0,0,0,0,0,0,0,0,0,0,0,0,0,0,0,
0,0,0,0,0,0,0,0,0,0,0,0,0,0,0,0,
0,0,0,0,0,0,0,0,0,0,0,0,0,0,0,0,
0,0,0,0,0,0,0,0,0,0,0,0,0,0,0,0,
0,0,0,0,0,0,0,0,0,0,0,0,0,0,0,0,
0,0,0,0,0,0,0,0,0,0,0,0,0,0,0,0,
0,0,0,0,132383,0,0,0,0,0,0,0,0,0,0,0,
0,0,0,0,0,0,0,0,0,0,0,0,0,0,0,0,
0,0,0,0,0,0,0,0,0,0,0,0,0,0,0,0,
0,0,0,0,0,0,0,0,0,0,0,0,0,0,0,0,
0,0,0,0,0,0,0,0,0,0,0,0,0,0,0,0,
0,0,0,0,0,0,0,0,0,0,0,0,0,0,0,0
</chunk>
   <chunk x="-32" y="16" width="16" height="16">
0,132383,0,0,0,0,0,0,0,0,0,0,0,0,0,0,
0,0,0,0,0,0,0,0,0,0,0,0,0,0,0,0,
0,0,0,0,0,0,0,0,0,0,0,0,0,132380,0,0,
0,0,0,0,0,0,0,0,0,0,0,0,0,0,0,0,
0,0,0,0,0,0,0,0,0,0,0,0,0,0,0,0,
0,0,0,0,0,0,0,0,0,0,0,0,0,0,0,0,
0,0,0,0,0,0,0,0,0,0,0,0,0,0,0,0,
0,0,0,0,0,0,0,0,0,0,0,0,0,0,0,0,
0,0,0,0,0,0,0,0,0,0,0,0,0,0,0,0,
0,0,0,0,0,0,0,0,0,0,0,0,0,0,0,0,
0,0,0,0,0,0,0,0,0,0,0,0,0,0,0,0,
0,0,0,0,0,0,0,0,0,0,0,0,0,0,0,0,
0,0,0,0,0,0,0,0,0,0,0,0,0,0,0,0,
0,0,0,0,0,0,0,0,0,0,0,0,0,0,0,0,
0,0,0,0,0,0,0,0,0,0,0,0,0,0,0,0,
0,0,0,0,0,0,0,0,0,0,0,0,0,0,0,0
</chunk>
   <chunk x="-16" y="16" width="16" height="16">
0,0,0,0,0,0,0,0,0,0,655,0,0,0,0,0,
0,0,0,0,0,0,0,0,0,0,0,0,0,0,0,0,
0,0,0,0,0,99,0,0,0,0,0,0,655,0,0,0,
0,0,0,0,0,0,0,0,0,0,0,0,0,0,0,0,
0,0,0,0,0,0,0,0,0,0,0,0,0,0,0,0,
0,0,0,0,0,0,0,0,0,0,0,0,132383,0,0,0,
0,0,0,0,0,0,0,0,0,0,0,0,0,0,0,0,
0,0,0,0,0,0,0,0,0,0,0,0,0,0,0,0,
0,0,0,0,0,0,0,0,0,0,0,0,0,0,0,0,
0,0,0,0,0,0,0,0,0,0,0,0,0,0,0,0,
0,0,0,0,0,0,0,0,0,0,0,0,0,0,0,0,
0,0,0,0,0,0,0,0,0,0,0,0,0,0,0,0,
0,0,0,0,0,0,0,0,0,0,0,0,0,0,0,0,
0,0,0,0,0,0,0,0,0,0,0,0,0,0,0,0,
0,0,0,0,0,0,0,0,0,0,0,0,0,0,0,0,
0,0,0,0,0,0,0,0,0,0,0,0,0,0,0,0
</chunk>
  </data>
 </layer>
 <layer id="2" name="di atas map 1" width="30" height="20">
  <data encoding="csv">
   <chunk x="-32" y="-16" width="16" height="16">
0,0,0,0,0,0,0,0,0,0,0,0,0,0,0,0,
0,0,0,0,0,0,0,0,0,0,0,0,0,0,0,0,
0,0,0,0,0,0,0,0,0,0,0,0,0,0,0,0,
0,0,0,0,0,0,0,0,0,0,0,0,0,0,0,0,
0,0,0,0,0,0,0,0,0,0,0,0,0,0,0,0,
0,0,0,0,0,0,0,0,0,0,0,0,0,0,0,0,
0,0,0,0,0,0,0,0,0,0,0,0,0,0,0,0,
0,0,0,0,0,0,0,0,0,0,0,0,0,0,0,0,
0,0,0,0,0,0,0,0,0,0,0,0,0,0,0,0,
0,751,0,45,46,663,0,0,0,132351,0,0,0,0,0,0,
0,750,0,62,63,0,0,31,32,0,0,0,0,711,712,0,
0,0,0,79,80,0,0,48,49,0,318,319,641,733,734,0,
853,854,855,0,0,0,0,0,0,0,0,0,0,0,0,0,
853,854,855,0,0,0,0,0,0,0,0,0,0,0,0,0,
0,0,0,694,695,695,695,695,695,695,695,695,695,695,695,695,
0,752,0,737,739,739,739,739,739,739,739,739,739,739,739,739
</chunk>
   <chunk x="-16" y="-16" width="16" height="16">
0,0,0,0,0,0,0,0,0,0,0,0,0,0,0,0,
0,0,0,0,0,0,0,0,0,0,0,0,0,0,0,0,
0,0,0,0,0,0,0,0,0,0,0,0,0,0,0,0,
0,0,0,0,0,0,0,0,0,0,0,0,0,0,0,0,
0,0,0,0,0,0,0,0,0,0,0,0,0,0,0,0,
0,0,0,0,0,0,0,0,0,0,0,0,0,0,0,0,
0,0,0,0,0,0,0,0,0,0,0,0,59949,0,0,0,
0,0,0,0,0,0,0,577,578,579,580,0,0,0,0,0,
0,0,0,0,0,0,0,599,600,601,602,0,62889,62890,62891,0,
0,641,687,688,132352,0,641,621,622,623,624,0,63029,63030,63031,0,
640,0,709,710,0,618,0,643,644,645,646,0,63169,63170,63171,0,
0,132359,731,732,0,0,0,665,666,667,668,132395,63309,63310,63311,0,
0,0,0,0,0,0,0,0,0,0,0,0,0,0,0,0,
0,0,0,0,0,0,0,0,0,0,0,0,0,0,0,0,
695,695,695,695,695,695,696,0,0,694,695,695,695,695,719,0,
739,739,739,739,739,739,741,0,0,737,739,739,739,739,741,0
</chunk>
   <chunk x="0" y="-16" width="16" height="16">
0,0,0,0,0,0,0,0,0,0,0,0,0,0,0,0,
0,0,0,0,0,0,0,0,0,0,0,0,0,0,0,0,
0,0,0,0,0,0,0,0,0,0,0,0,0,0,0,0,
0,0,0,0,0,0,0,0,0,0,0,0,0,0,0,0,
0,0,0,0,0,0,0,0,0,0,0,0,0,0,0,0,
0,0,0,0,0,0,0,0,0,0,0,0,0,0,0,0,
0,0,0,0,0,0,0,0,0,0,0,0,0,0,0,0,
0,0,0,0,0,0,0,0,0,0,0,0,0,0,0,0,
0,0,0,737,0,0,0,0,0,0,0,0,0,0,0,0,
0,0,0,737,0,0,0,0,0,0,0,0,0,0,0,0,
663,0,0,737,0,0,0,0,0,0,0,0,0,0,0,0,
0,0,0,737,318,319,0,0,0,0,0,0,0,0,0,0,
0,619,0,737,132358,641,0,0,0,0,0,0,0,0,0,0,
0,0,0,737,0,0,0,0,0,0,0,0,0,0,0,0,
0,0,0,737,0,0,0,0,0,0,0,0,0,0,0,0,
0,0,0,737,0,0,0,0,0,0,0,0,0,0,0,0
</chunk>
   <chunk x="-32" y="0" width="16" height="16">
0,750,0,737,98,739,739,739,739,739,739,739,739,739,739,739,
0,0,0,759,783,783,783,785,786,787,783,783,783,783,783,783,
853,854,855,0,0,0,45,46,0,0,0,0,0,0,0,0,
853,854,855,0,0,0,62,63,0,61628,61629,61630,61631,61632,0,0,
0,0,0,0,0,0,79,80,0,61768,61769,61770,61771,61772,0,642,
0,0,0,0,662,687,688,0,0,61908,61909,61910,61911,61912,0,0,
0,707,0,0,0,709,710,0,0,62048,62049,62050,62051,62052,0,0,
0,0,0,0,0,731,732,0,0,0,0,0,0,0,0,0,
0,0,0,0,640,0,641,0,0,0,0,0,0,0,0,0,
0,751,0,0,0,687,688,0,0,0,0,0,0,0,132351,0,
0,0,0,0,0,709,710,0,0,0,0,0,0,0,0,0,
0,0,0,0,0,731,732,0,0,0,0,0,0,663,0,0,
0,707,0,98,0,0,0,0,0,0,619,0,0,0,0,0,
0,0,0,0,0,0,0,851,851,0,0,0,0,0,0,0,
0,730,0,0,750,0,0,856,856,0,0,752,0,0,0,707,
0,0,0,0,0,0,0,861,861,0,0,0,0,0,0,0
</chunk>
   <chunk x="-16" y="0" width="16" height="16">
739,739,739,739,739,739,741,0,0,737,739,739,739,739,718,695,
783,783,783,783,783,783,763,0,0,782,785,786,787,783,783,783,
0,0,0,0,0,0,45,46,0,0,0,0,663,0,0,0,
0,0,0,0,0,0,62,63,0,642,0,640,0,45,46,0,
0,662,0,132352,0,0,79,80,0,31,32,0,0,62,63,0,
0,824,831,831,831,826,0,0,0,48,49,0,640,79,80,0,
0,827,0,0,0,829,0,0,0,141,0,0,0,145,0,0,
0,827,0,0,0,829,0,0,131208,131209,131210,131211,131212,0,0,0,
0,827,0,0,0,829,0,0,131348,131349,131350,131351,131352,642,0,0,
0,827,0,0,0,829,0,0,131488,131489,131490,131491,131492,0,0,619,
0,827,0,0,0,829,0,0,131628,131629,131630,131631,131632,0,0,0,
0,830,832,825,830,832,0,0,0,662,0,0,0,640,0,0,
0,0,0,0,0,0,0,0,0,98,0,132352,0,0,0,0,
0,0,0,0,0,0,0,851,851,0,0,0,0,0,0,0,
0,730,0,0,751,0,0,856,856,0,0,752,730,0,0,0,
0,0,0,0,0,0,0,861,861,0,0,0,0,0,0,0
</chunk>
   <chunk x="0" y="0" width="16" height="16">
695,695,695,716,0,0,0,0,0,0,0,0,0,0,0,0,
783,783,783,760,641,0,0,0,0,0,0,0,0,0,0,0,
0,0,0,737,0,0,0,0,0,0,0,0,0,0,0,0,
0,0,0,737,0,0,0,0,0,0,0,0,0,0,0,0,
0,618,0,737,0,0,0,0,0,0,0,0,0,0,0,0,
0,0,0,737,318,319,0,0,0,0,0,0,0,0,0,0,
0,0,0,737,620,0,0,0,0,0,0,0,0,0,0,0,
0,0,0,737,0,0,0,0,0,0,0,0,0,0,0,0,
0,0,0,737,0,0,0,0,0,0,0,0,0,0,0,0,
0,0,0,721,0,0,0,0,0,0,0,0,0,0,0,0,
0,0,0,743,0,0,0,0,0,0,0,0,0,0,0,0,
132376,0,0,765,640,0,0,0,0,0,0,0,0,0,0,0,
0,0,0,782,783,783,0,0,0,0,0,0,0,0,0,0,
0,0,0,0,0,0,0,0,0,0,0,0,0,0,0,0,
0,707,0,750,0,0,0,0,0,0,0,0,0,0,0,0,
0,0,0,0,0,0,0,0,0,0,0,0,0,0,0,0
</chunk>
   <chunk x="-32" y="16" width="16" height="16">
0,0,0,0,0,640,45,46,0,121,122,123,0,132376,0,65687,
0,0,0,0,0,0,62,63,0,138,139,140,619,0,0,65827,
0,0,0,0,0,0,79,80,0,155,156,157,0,0,0,642,
0,0,0,0,0,0,0,0,0,0,0,0,0,0,0,0,
0,0,0,0,0,294,295,0,0,0,0,0,0,0,294,295,
0,0,0,0,0,304,305,618,0,132358,0,711,712,132354,304,305,
0,0,0,0,0,314,315,0,318,319,0,733,734,0,314,315,
0,0,0,0,0,0,0,0,0,0,0,0,0,0,0,0,
0,0,0,0,0,0,0,0,0,0,0,0,0,0,0,0,
0,0,0,0,0,0,0,0,0,0,0,0,0,0,0,0,
0,0,0,0,0,0,0,0,0,0,0,0,0,0,0,0,
0,0,0,0,0,0,0,0,0,0,0,0,0,0,0,0,
0,0,0,0,0,0,0,0,0,0,0,0,0,0,0,0,
0,0,0,0,0,0,0,0,0,0,0,0,0,0,0,0,
0,0,0,0,0,0,0,0,0,0,0,0,0,0,0,0,
0,0,0,0,0,0,0,0,0,0,0,0,0,0,0,0
</chunk>
   <chunk x="-16" y="16" width="16" height="16">
65688,65689,65690,65691,65692,65693,45,46,0,0,0,0,0,0,0,0,
65828,65829,65830,65831,65832,65833,62,63,0,0,0,663,0,0,0,0,
65968,65969,65970,65971,65972,65973,79,80,0,0,640,0,0,0,0,0,
0,0,0,0,0,0,0,0,0,0,0,0,0,0,0,0,
0,687,688,0,296,297,0,0,0,0,0,619,0,0,0,0,
641,709,710,0,306,307,620,0,0,132358,0,0,0,0,132352,0,
0,731,732,641,316,317,0,0,318,319,0,0,0,662,0,0,
0,0,0,0,0,0,0,0,0,0,0,0,0,0,0,0,
0,0,0,0,0,0,0,0,0,0,0,0,0,0,0,0,
0,0,0,0,0,0,0,0,0,0,0,0,0,0,0,0,
0,0,0,0,0,0,0,0,0,0,0,0,0,0,0,0,
0,0,0,0,0,0,0,0,0,0,0,0,0,0,0,0,
0,0,0,0,0,0,0,0,0,0,0,0,0,0,0,0,
0,0,0,0,0,0,0,0,0,0,0,0,0,0,0,0,
0,0,0,0,0,0,0,0,0,0,0,0,0,0,0,0,
0,0,0,0,0,0,0,0,0,0,0,0,0,0,0,0
</chunk>
   <chunk x="0" y="16" width="16" height="16">
0,0,0,0,0,0,0,0,0,0,0,0,0,0,0,0,
0,0,0,0,0,0,0,0,0,0,0,0,0,0,0,0,
0,0,0,0,0,0,0,0,0,0,0,0,0,0,0,0,
0,0,0,0,0,0,0,0,0,0,0,0,0,0,0,0,
0,0,641,0,0,0,0,0,0,0,0,0,0,0,0,0,
0,663,0,711,712,0,0,0,0,0,0,0,0,0,0,0,
0,0,0,733,734,0,0,0,0,0,0,0,0,0,0,0,
0,0,0,0,0,0,0,0,0,0,0,0,0,0,0,0,
0,0,0,0,0,0,0,0,0,0,0,0,0,0,0,0,
0,0,0,0,0,0,0,0,0,0,0,0,0,0,0,0,
0,0,0,0,0,0,0,0,0,0,0,0,0,0,0,0,
0,0,0,0,0,0,0,0,0,0,0,0,0,0,0,0,
0,0,0,0,0,0,0,0,0,0,0,0,0,0,0,0,
0,0,0,0,0,0,0,0,0,0,0,0,0,0,0,0,
0,0,0,0,0,0,0,0,0,0,0,0,0,0,0,0,
0,0,0,0,0,0,0,0,0,0,0,0,0,0,0,0
</chunk>
  </data>
 </layer>
 <layer id="4" name="aset kedua" width="30" height="20">
  <data encoding="csv">
   <chunk x="-32" y="-16" width="16" height="16">
0,0,0,0,0,0,0,0,0,0,0,0,0,0,0,0,
0,0,0,0,0,0,0,0,0,0,0,0,0,0,0,0,
0,0,0,0,0,0,0,0,0,0,0,0,0,0,0,0,
0,0,0,0,0,0,0,0,0,0,0,0,0,0,0,0,
0,0,0,0,0,0,0,0,0,0,0,0,0,0,0,0,
0,0,0,0,0,0,0,0,0,0,0,0,0,0,0,0,
0,0,0,296,297,0,0,0,0,0,0,0,662,0,0,0,
0,0,0,306,307,0,0,0,642,0,0,0,0,0,0,132380,
0,0,0,316,317,0,641,0,0,0,0,132361,0,0,0,0,
0,0,0,0,0,0,0,0,0,0,0,0,0,0,0,0,
0,0,0,0,0,0,0,0,0,0,0,132374,0,0,0,0,
0,0,0,0,0,0,0,0,0,0,0,0,0,0,0,0,
0,0,0,0,0,0,0,0,0,0,0,0,0,0,0,0,
0,0,0,0,0,0,0,0,0,0,0,0,0,0,0,0,
0,0,0,0,0,0,0,0,0,0,0,0,0,0,0,0,
0,0,0,0,0,0,0,0,132384,0,0,0,132361,0,0,0
</chunk>
   <chunk x="-16" y="-16" width="16" height="16">
0,0,0,0,0,0,0,0,0,0,0,0,0,0,0,0,
0,0,0,0,0,0,0,0,0,0,0,0,0,0,0,0,
0,0,0,0,0,0,0,0,0,0,0,0,0,0,0,0,
0,0,0,0,0,0,0,0,0,0,0,0,0,0,0,0,
0,0,0,0,0,0,0,0,0,0,0,0,0,0,0,0,
0,0,0,0,0,0,0,0,0,0,0,0,0,0,0,0,
0,0,0,0,0,0,0,0,0,0,0,0,0,0,0,0,
0,132379,0,0,0,132361,0,0,0,0,0,0,0,0,0,0,
0,0,0,0,0,0,0,0,0,0,0,0,0,0,0,0,
0,0,0,0,0,0,0,0,0,0,0,132353,0,0,0,0,
0,0,0,0,0,0,0,0,0,0,0,0,0,0,0,0,
0,0,0,0,0,0,0,0,0,0,0,0,0,0,0,0,
0,0,0,0,0,0,0,0,0,0,0,0,0,0,0,0,
0,0,0,0,0,0,0,0,0,0,0,0,0,0,0,0,
0,0,0,0,0,0,0,0,0,0,0,31,32,0,0,0,
0,0,0,0,0,0,0,0,0,0,0,48,49,0,0,0
</chunk>
   <chunk x="0" y="-16" width="16" height="16">
0,0,0,0,0,0,0,0,0,0,0,0,0,0,0,0,
0,0,0,0,0,0,0,0,0,0,0,0,0,0,0,0,
0,0,0,0,0,0,0,0,0,0,0,0,0,0,0,0,
0,0,0,0,0,0,0,0,0,0,0,0,0,0,0,0,
0,0,0,0,0,0,0,0,0,0,0,0,0,0,0,0,
0,0,0,0,0,0,0,0,0,0,0,0,0,0,0,0,
0,0,0,577,578,579,580,0,0,0,0,0,0,0,0,0,
0,0,0,599,600,601,602,0,0,0,0,0,0,0,0,0,
0,0,0,621,622,623,624,0,0,0,0,0,0,0,0,0,
0,0,0,643,644,645,646,0,0,0,0,0,0,0,0,0,
0,0,0,665,666,667,668,0,0,0,0,0,0,0,0,0,
0,0,0,0,0,0,0,0,0,0,0,0,0,0,0,0,
0,0,0,0,0,0,0,0,0,0,0,0,0,0,0,0,
0,0,0,0,0,0,0,0,0,0,0,0,0,0,0,0,
0,0,0,0,296,297,0,0,0,0,0,0,0,0,0,0,
0,0,0,0,306,307,0,0,0,0,0,0,0,0,0,0
</chunk>
   <chunk x="-32" y="0" width="16" height="16">
0,0,0,0,0,0,0,0,0,0,0,0,0,0,0,0,
0,0,0,0,0,0,0,0,0,0,0,0,0,0,0,0,
0,0,0,0,0,0,0,0,0,0,0,0,0,0,0,0,
0,0,0,0,0,0,0,0,0,0,0,0,0,0,0,0,
0,0,0,0,0,0,0,0,0,0,0,0,0,0,0,0,
0,0,0,0,0,0,0,0,0,0,0,0,0,0,0,0,
0,0,0,0,0,0,0,0,0,0,0,0,0,0,0,0,
0,0,0,0,0,0,0,0,0,0,0,0,0,0,0,0,
0,0,0,0,0,0,0,0,0,0,0,0,0,0,0,0,
0,0,0,0,0,0,0,0,0,0,0,0,0,0,0,0,
0,0,0,0,0,0,0,0,0,0,132384,0,0,0,0,0,
0,0,0,0,0,0,0,0,0,0,0,0,31,32,0,132390,
0,0,0,0,0,0,0,0,0,0,0,0,48,49,0,0,
0,0,0,0,0,0,0,0,0,0,0,0,0,0,0,0,
0,0,0,0,0,0,0,0,0,0,0,0,0,0,0,0,
0,0,0,0,0,0,0,0,0,0,0,0,0,0,0,0
</chunk>
   <chunk x="-16" y="0" width="16" height="16">
0,0,132381,0,0,132382,0,0,0,0,0,0,0,0,0,0,
0,0,0,0,0,0,0,0,0,0,0,0,0,0,0,0,
0,0,0,0,0,0,0,0,0,0,0,0,0,0,0,0,
0,0,0,0,0,0,0,0,0,0,0,0,0,0,0,0,
0,0,0,0,0,0,0,0,0,0,0,0,0,0,0,0,
0,0,0,0,0,0,0,0,0,0,0,0,0,0,0,0,
0,0,0,0,0,0,0,0,0,0,0,0,0,0,0,0,
0,0,0,0,0,0,0,0,0,0,0,0,0,0,0,0,
0,0,0,0,0,0,0,0,0,0,0,0,0,0,0,0,
0,0,0,0,0,0,0,0,0,0,0,0,0,0,0,0,
0,0,0,0,0,0,0,0,0,0,0,0,0,0,0,0,
0,0,0,0,0,0,0,0,0,0,0,0,0,0,0,0,
0,0,0,0,0,0,0,0,0,0,0,0,0,0,0,0,
0,0,0,0,0,0,0,0,0,0,0,0,0,0,0,0,
0,0,0,0,0,0,0,0,0,0,0,0,0,0,0,0,
0,0,0,0,0,0,0,0,0,0,0,0,0,0,0,0
</chunk>
   <chunk x="0" y="0" width="16" height="16">
0,0,0,0,316,317,0,0,0,0,0,0,0,0,0,0,
0,0,0,0,294,295,0,0,0,0,0,0,0,0,0,0,
0,0,0,0,304,305,0,0,0,0,0,0,0,0,0,0,
0,0,0,0,314,315,0,0,0,0,0,0,0,0,0,0,
0,0,0,0,0,0,0,0,0,0,0,0,0,0,0,0,
0,0,0,0,0,0,0,0,0,0,0,0,0,0,0,0,
0,0,0,0,294,295,0,0,0,0,0,0,0,0,0,0,
0,0,0,0,304,305,0,0,0,0,0,0,0,0,0,0,
0,0,0,0,314,315,0,0,0,0,0,0,0,0,0,0,
0,0,0,0,0,0,0,0,0,0,0,0,0,0,0,0,
0,0,0,0,0,0,0,0,0,0,0,0,0,0,0,0,
0,0,0,0,0,0,0,0,0,0,0,0,0,0,0,0,
0,0,0,0,0,0,0,0,0,0,0,0,0,0,0,0,
0,0,0,0,0,0,0,0,0,0,0,0,0,0,0,0,
0,0,0,0,0,0,0,0,0,0,0,0,0,0,0,0,
0,0,0,0,0,0,0,0,0,0,0,0,0,0,0,0
</chunk>
   <chunk x="-32" y="16" width="16" height="16">
0,0,0,0,0,0,0,0,0,0,0,0,0,0,0,0,
0,0,0,0,0,0,0,0,0,0,0,0,0,0,0,0,
0,0,0,0,0,0,0,0,0,0,0,0,0,0,0,0,
0,0,0,0,0,0,0,0,0,0,0,0,0,0,0,0,
132384,0,0,0,0,0,0,0,0,0,0,0,0,0,0,0,
0,0,0,0,0,0,0,0,0,0,0,0,0,0,0,0,
0,0,0,0,0,0,0,0,0,0,0,0,0,0,0,0,
0,0,0,0,0,0,0,0,0,0,0,0,0,0,0,0,
0,0,0,0,0,0,0,0,0,0,0,0,0,0,0,0,
0,0,0,0,0,0,0,0,0,0,0,0,0,0,0,0,
0,0,0,0,0,0,0,0,0,0,0,0,0,0,0,0,
0,0,0,0,0,0,0,0,0,0,0,0,0,0,0,0,
0,0,0,0,0,0,0,0,0,0,0,0,0,0,0,0,
0,0,0,0,0,0,0,0,0,0,0,0,0,0,0,0,
0,0,0,0,0,0,0,0,0,0,0,0,0,0,0,0,
0,0,0,0,0,0,0,0,0,0,0,0,0,0,0,0
</chunk>
   <chunk x="-16" y="16" width="16" height="16">
0,0,0,0,0,0,0,0,0,0,0,132390,0,0,0,0,
0,0,0,0,0,0,0,0,0,0,0,0,132391,0,0,0,
0,0,0,0,0,0,0,0,0,0,0,0,0,0,0,0,
0,0,0,0,0,0,0,0,0,0,0,132389,0,0,0,0,
0,0,0,0,0,0,0,0,0,0,0,0,0,0,0,0,
0,0,0,0,0,0,0,0,0,0,0,0,0,0,0,0,
0,0,0,0,0,0,0,0,0,0,0,0,0,0,0,0,
0,0,0,0,0,0,0,0,0,0,0,0,0,0,0,0,
0,0,0,0,0,0,0,0,0,0,0,0,0,0,0,0,
0,0,0,0,0,0,0,0,0,0,0,0,0,0,0,0,
0,0,0,0,0,0,0,0,0,0,0,0,0,0,0,0,
0,0,0,0,0,0,0,0,0,0,0,0,0,0,0,0,
0,0,0,0,0,0,0,0,0,0,0,0,0,0,0,0,
0,0,0,0,0,0,0,0,0,0,0,0,0,0,0,0,
0,0,0,0,0,0,0,0,0,0,0,0,0,0,0,0,
0,0,0,0,0,0,0,0,0,0,0,0,0,0,0,0
</chunk>
  </data>
 </layer>
</map>
